X:5
T:Springlek efter Perbj\"ors Erik Persson
R:polska K1
A:Lima, Dalarna
Z:hn-k1-5
M:3/4
K:D
A|A2 a2 ge|f2 fa ed|dc Ac df|fe ec AA|
A2 a2 ge|f2 fa ed|dc Ac df|S(3ece d3:|
|:d|Sd>c A2 cd|Se>f f<d ed|dc Ac df|fe ec Ad|
dc A2 cd|Se>f f<d e2|Sef ga/g/ fe|Sc<e d3:|
<end>
<start>
